X: 12
T: Jenny Dang The Weaver
C: Reverend Alexander Garden
Z: Andrew
S: https://thesession.org/tunes/380#setting49573
R: reel
M: 4/4
L: 1/8
K: Bmin
~B4 BABd|ABdf efdB|~A4 A3 F|ABde fdef|
dBBA ~B3 d|ABdg fedB|~A4 A3 F|ABde fdef||
d2 f2 e2 fe|defa gefe|d2 f2 efgf|eaaf g2 fe|
d2 f2 e2 fe|defd g2 (3fga|b2 af gfed|cdef gfed||

%-------------------- TUNE SEPARATOR --------------------%

